X: 2085
T: ARGYLE BOWLING GREEN
C:
Q: "Reel."
R: Reel.
%R: reel
B: James Kerr "Merry Melodies" v.2 p.12 #085
Z: 2016 John Chambers <jc:trillian.mit.edu>
M: C
L: 1/8
K: C
E |\
C2c2 cded | cBcA GFED |\
C2c2 cded | cAGE D3 :|\
uc |\
GEcE GEEA | GEcE G3 uA |
GEcE GEEF | GAGE D3 ua |\
gec'e geea | gec'e g3a |\
gec'e geef | gage d3 |]

%%sep 1 1 500
%%sep 1 1 500

